X: 37593
T: Smith O' Couster
R: reel
M: 4/4
K: Dmajor
A|d2 fd gece|dfed cAA=c|BGGB AFFA|^GBed cAA
c|d2 fd gece|dfed cAA=c|BGGB AFFA|Bgec fd d:|
g|fdad ecac|dBed cAA=c|BGGB AFFA|^GBed cAA
g|fdad ecac|dBed cAA=c|BGGB AFFA|Bgec fd d
g|fdad ecac|dBed cAA=c|BGGB AFFA|^GBed cAA
A|d2 fd gece|dfed cAA=c|BGGB AFFA|Bgec fd d||

